X: 21484
T: Key West, The
R: hornpipe
M: 4/4
K: Amajor
|:(3cd^d|e>cA>c (3eea g>a|e>cA>c (3eea (3gga|f>ed>c B>AG>A|(3BcB (3AGF E2 (3fgf|
e>cA>c e>ag>a|e>cA>c e>ag>a|b>ga>f e>^ef>g|1 a2 a2 A,2 (3agf:|2 a2 (3bag a2||
|:(3_edc|B>GE>G B>c (3dcB|c>A (3FGA E>C (3DCB,|(3A,CD (3EFG a>ec>A|d>cd (7e/4f/4g/4a/4b/4c'/4d'/4- d'>ef>g|
a>ga>b a>ec>A|d>cd>e f>ed>c|B>AG>F E>GB>c|1 (3Ace (3agb a2:|2 (3ABA G>B A2||

